images/pig-scheme/lopatka.svg

<svg width="136" height="113" viewBox="0 0 136 113" fill="none" xmlns="http://www.w3.org/2000/svg">
<path d="M135.837 86.2969C135.837 88.1869 135.797 90.1169 135.717 92.0669C135.487 97.7169 134.977 103.607 134.167 109.747C130.737 110.107 124.507 110.707 116.487 111.297C114.567 111.437 112.537 111.577 110.417 111.717C104.287 112.107 97.3969 112.467 90.0769 112.707C88.1669 112.777 86.2369 112.827 84.2669 112.867C77.9669 113.007 71.4268 113.047 64.8468 112.937C63.0068 112.907 61.1669 112.867 59.3269 112.807C53.1569 112.627 46.9969 112.287 41.0169 111.767C39.2869 111.617 37.5669 111.447 35.8669 111.267C29.9969 110.627 24.3468 109.787 19.0868 108.697C17.5068 108.377 15.9768 108.037 14.4768 107.657C10.1768 106.607 6.19683 105.367 2.64683 103.907C2.45683 102.827 2.28686 101.747 2.11686 100.667C1.86686 99.0069 1.63686 97.3569 1.42686 95.7069C0.646858 89.5769 0.186853 83.5669 0.0468533 77.7369C-0.00314669 75.8369 -0.013115 73.9669 0.016885 72.1169C0.116885 64.6569 0.766836 57.5269 1.96684 50.8169C2.40684 48.3569 2.91688 45.9568 3.50688 43.6269C5.76688 34.6068 9.14687 26.5269 13.6269 19.6769C21.8469 7.0969 33.0668 0.316885 46.0868 0.0368853C46.4268 0.0268853 46.7669 0.0268657 47.1169 0.0168657C48.8769 -0.0131343 50.7469 -0.00310497 52.7369 0.046895C58.0269 0.186895 64.0469 0.676866 70.3669 1.76687C71.9269 2.03687 73.5068 2.34685 75.0968 2.68685C79.9868 3.76685 84.9969 5.22687 89.9269 7.20687C91.2469 7.73687 92.5669 8.29688 93.8769 8.90688C98.0869 10.8569 102.197 13.1969 106.107 16.0269C107.187 16.8069 108.247 17.6269 109.297 18.4869C112.727 21.3069 115.957 24.5369 118.897 28.2369C119.357 28.7969 119.797 29.3769 120.227 29.9569C120.597 30.4569 120.957 30.9569 121.317 31.4669C123.987 35.2869 126.297 39.4369 128.227 43.9069C128.807 45.2169 129.347 46.5568 129.847 47.9368C131.597 52.6868 132.967 57.7669 133.957 63.1769C134.247 64.7769 134.497 66.3969 134.727 68.0569C135.507 73.7969 135.877 79.8769 135.837 86.2969Z" fill="#C21921"/>
<path fill-rule="evenodd" clip-rule="evenodd" d="M52.7368 0.046895L1.9668 50.8169C2.4068 48.3569 2.91684 45.9568 3.50684 43.6269L47.1168 0.0168657C48.8768 -0.0131343 50.7468 -0.00310497 52.7368 0.046895Z" fill="#9E1B1E"/>
<path fill-rule="evenodd" clip-rule="evenodd" d="M75.0968 2.68683L0.0468533 77.7369C-0.00314669 75.8369 -0.013115 73.9669 0.016885 72.1169L70.3669 1.76685C71.9269 2.03685 73.5068 2.34683 75.0968 2.68683Z" fill="#9E1B1E"/>
<path fill-rule="evenodd" clip-rule="evenodd" d="M93.8768 8.9068L2.11676 100.667C1.86676 99.0068 1.63676 97.3568 1.42676 95.7068L89.9268 7.20679C91.2468 7.73679 92.5668 8.2968 93.8768 8.9068Z" fill="#9E1B1E"/>
<path fill-rule="evenodd" clip-rule="evenodd" d="M109.297 18.4869L19.0868 108.697C17.5068 108.377 15.9768 108.037 14.4768 107.657L106.107 16.0269C107.187 16.8069 108.247 17.6269 109.297 18.4869Z" fill="#9E1B1E"/>
<path fill-rule="evenodd" clip-rule="evenodd" d="M121.317 31.4668L41.017 111.767C39.287 111.617 37.5669 111.447 35.8669 111.267L118.897 28.2368C119.357 28.7968 119.797 29.3768 120.227 29.9568C120.597 30.4568 120.957 30.9568 121.317 31.4668Z" fill="#9E1B1E"/>
<path fill-rule="evenodd" clip-rule="evenodd" d="M129.847 47.9368L64.8469 112.937C63.0069 112.907 61.1669 112.867 59.3269 112.807L128.227 43.9069C128.807 45.2169 129.347 46.5568 129.847 47.9368Z" fill="#9E1B1E"/>
<path fill-rule="evenodd" clip-rule="evenodd" d="M134.727 68.0569L90.0768 112.707C88.1668 112.777 86.2368 112.827 84.2668 112.867L133.957 63.1769C134.247 64.7769 134.497 66.3969 134.727 68.0569Z" fill="#9E1B1E"/>
<path fill-rule="evenodd" clip-rule="evenodd" d="M135.837 86.2969C135.837 88.1869 135.797 90.1168 135.717 92.0668L116.487 111.297C114.567 111.437 112.537 111.577 110.417 111.717L135.837 86.2969Z" fill="#9E1B1E"/>
</svg>

<svg width="136" height="113" fill="none" xmlns="http://www.w3.org/2000/svg"><path d="M135.837 86.297c0 1.89-.04 3.82-.12 5.77-.23 5.65-.74 11.54-1.55 17.68-3.43.36-9.66.96-17.68 1.55-1.92.14-3.95.28-6.07.42-6.13.39-13.02.75-20.34.99-1.91.07-3.84.12-5.81.16-6.3.14-12.84.18-19.42.07-1.84-.03-3.68-.07-5.52-.13-6.17-.18-12.33-.52-18.31-1.04-1.73-.15-3.45-.32-5.15-.5-5.87-.64-11.52-1.48-16.78-2.57-1.58-.32-3.11-.66-4.61-1.04-4.3-1.05-8.28-2.29-11.83-3.75-.19-1.08-.36-2.16-.53-3.24-.25-1.66-.48-3.31-.69-4.96-.78-6.13-1.24-12.14-1.38-17.97-.05-1.9-.06-3.77-.03-5.62.1-7.46.75-14.59 1.95-21.3.44-2.46.95-4.86 1.54-7.19 2.26-9.02 5.64-17.1 10.12-23.95 8.22-12.58 19.44-19.36 32.46-19.64.34-.01.68-.01 1.03-.02 1.76-.03 3.63-.02 5.62.03 5.29.14 11.31.63 17.63 1.72 1.56.27 3.14.58 4.73.92 4.89 1.08 9.9 2.54 14.83 4.52 1.32.53 2.64 1.09 3.95 1.7 4.21 1.95 8.32 4.29 12.23 7.12 1.08.78 2.14 1.6 3.19 2.46 3.43 2.82 6.66 6.05 9.6 9.75.46.56.9 1.14 1.33 1.72.37.5.73 1 1.09 1.51 2.67 3.82 4.98 7.97 6.91 12.44a62.69 62.69 0 011.62 4.03c1.75 4.75 3.12 9.83 4.11 15.24.29 1.6.54 3.22.77 4.88.78 5.74 1.15 11.82 1.11 18.24z" fill="#C21921"/><path fill-rule="evenodd" clip-rule="evenodd" d="M52.737.047l-50.77 50.77c.44-2.46.95-4.86 1.54-7.19L47.117.017c1.76-.03 3.63-.02 5.62.03zm22.36 2.64L.047 77.737c-.05-1.9-.06-3.77-.03-5.62l70.35-70.35c1.56.27 3.14.58 4.73.92zm18.78 6.22l-91.76 91.76c-.25-1.66-.48-3.31-.69-4.96l88.5-88.5c1.32.53 2.64 1.09 3.95 1.7zm15.42 9.58l-90.21 90.21c-1.58-.32-3.11-.66-4.61-1.04l91.63-91.63c1.08.78 2.14 1.6 3.19 2.46zm12.02 12.98l-80.3 80.3c-1.73-.15-3.45-.32-5.15-.5l83.03-83.03c.46.56.9 1.14 1.33 1.72.37.5.73 1 1.09 1.51zm8.53 16.47l-65 65c-1.84-.03-3.68-.07-5.52-.13l68.9-68.9a62.69 62.69 0 011.62 4.03zm4.88 20.12l-44.65 44.65c-1.91.07-3.84.12-5.81.16l49.69-49.69c.29 1.6.54 3.22.77 4.88zm1.11 18.24c0 1.89-.04 3.82-.12 5.77l-19.23 19.23c-1.92.14-3.95.28-6.07.42l25.42-25.42z" fill="#9E1B1E"/></svg>
